X:354
T:
R:polska
S:Efter Mats Andersson i Levide; meddel. av C. Wennersten, Visby.
O:Gotland, Levide
M:3/4
L:1/16
K:D
ABAG F2A2 d2f2|efed cd cB A4|B2A2G2F2 E2D2|D2F2 E2C2 A,4|ABAG F2A2 d2f2|
efed cdcB A3f|g2a2 f2g2 A2g2|fedc e4 d4::f4 d2d2 d2ef|g4 e2e2 e2g2|
f2e2 d2c2 d2f2|e2d2 c2B2 A4|f4 d2d2 d2ef|g4 e2e2e2f2|g2a2 f2g2 A2g2|
fedc c4 d4:|

